symbolic/24x24/devices/input-dialpad.svg

<svg xmlns="http://www.w3.org/2000/svg" width="24" height="24" version="1"><rect style="opacity:.2" width="15" height="19" x="4" y="2.5" rx="1" ry="1"/><rect style="fill:#4f4f4f" width="15" height="19" x="4" y="2" rx="1" ry="1"/><g style="opacity:.2" transform="translate(0 .5)"><rect width="3" height="3" x="10" y="8" rx=".5" ry=".5"/><rect width="3" height="3" x="14" y="8" rx=".5" ry=".5"/><rect width="3" height="3" x="6" y="8" rx=".5" ry=".5"/><rect width="3" height="3" x="10" y="4" rx=".5" ry=".5"/><rect width="3" height="3" x="14" y="4" rx=".5" ry=".5"/><rect width="3" height="3" x="6" y="4" rx=".5" ry=".5"/><rect width="3" height="3" x="10" y="12" rx=".5" ry=".5"/><rect width="3" height="3" x="14" y="12" rx=".5" ry=".5"/><rect width="3" height="3" x="6" y="12" rx=".5" ry=".5"/><rect width="3" height="3" x="10" y="16" rx=".5" ry=".5"/><rect width="3" height="3" x="14" y="16" rx=".5" ry=".5"/><rect width="3" height="3" x="6" y="16" rx=".5" ry=".5"/></g><g style="fill:#e4e4e4"><rect width="3" height="3" x="10" y="8" rx=".5" ry=".5"/><rect width="3" height="3" x="14" y="8" rx=".5" ry=".5"/><rect width="3" height="3" x="6" y="8" rx=".5" ry=".5"/><rect width="3" height="3" x="10" y="4" rx=".5" ry=".5"/><rect width="3" height="3" x="14" y="4" rx=".5" ry=".5"/><rect width="3" height="3" x="6" y="4" rx=".5" ry=".5"/><rect width="3" height="3" x="10" y="12" rx=".5" ry=".5"/><rect width="3" height="3" x="14" y="12" rx=".5" ry=".5"/><rect width="3" height="3" x="6" y="12" rx=".5" ry=".5"/><rect width="3" height="3" x="10" y="16" rx=".5" ry=".5"/></g><rect style="fill:#ff5a5a" width="3" height="3" x="14" y="16" rx=".5" ry=".5"/><rect style="fill:#64c90e" width="3" height="3" x="6" y="16" rx=".5" ry=".5"/><path style="fill:#fff;opacity:.1" d="M5 2c-.554 0-1 .446-1 1v.5c0-.554.446-1 1-1h13c.554 0 1 .446 1 1V3c0-.554-.446-1-1-1H5z"/><path style="opacity:.2;fill:#fff" d="M6.5 4c-.277 0-.5.223-.5.5V5c0-.277.223-.5.5-.5h2c.277 0 .5.223.5.5v-.5c0-.277-.223-.5-.5-.5h-2zm4 0c-.277 0-.5.223-.5.5V5c0-.277.223-.5.5-.5h2c.277 0 .5.223.5.5v-.5c0-.277-.223-.5-.5-.5h-2zm4 0c-.277 0-.5.223-.5.5V5c0-.277.223-.5.5-.5h2c.277 0 .5.223.5.5v-.5c0-.277-.223-.5-.5-.5h-2zm-8 4c-.277 0-.5.223-.5.5V9c0-.277.223-.5.5-.5h2c.277 0 .5.223.5.5v-.5c0-.277-.223-.5-.5-.5h-2zm4 0c-.277 0-.5.223-.5.5V9c0-.277.223-.5.5-.5h2c.277 0 .5.223.5.5v-.5c0-.277-.223-.5-.5-.5h-2zm4 0c-.277 0-.5.223-.5.5V9c0-.277.223-.5.5-.5h2c.277 0 .5.223.5.5v-.5c0-.277-.223-.5-.5-.5h-2zm-8 4c-.277 0-.5.223-.5.5v.5c0-.277.223-.5.5-.5h2c.277 0 .5.223.5.5v-.5c0-.277-.223-.5-.5-.5h-2zm4 0c-.277 0-.5.223-.5.5v.5c0-.277.223-.5.5-.5h2c.277 0 .5.223.5.5v-.5c0-.277-.223-.5-.5-.5h-2zm4 0c-.277 0-.5.223-.5.5v.5c0-.277.223-.5.5-.5h2c.277 0 .5.223.5.5v-.5c0-.277-.223-.5-.5-.5h-2zm-8 4c-.277 0-.5.223-.5.5v.5c0-.277.223-.5.5-.5h2c.277 0 .5.223.5.5v-.5c0-.277-.223-.5-.5-.5h-2zm4 0c-.277 0-.5.223-.5.5v.5c0-.277.223-.5.5-.5h2c.277 0 .5.223.5.5v-.5c0-.277-.223-.5-.5-.5h-2zm4 0c-.277 0-.5.223-.5.5v.5c0-.277.223-.5.5-.5h2c.277 0 .5.223.5.5v-.5c0-.277-.223-.5-.5-.5h-2z"/></svg>

<svg xmlns="http://www.w3.org/2000/svg" width="24" height="24" version="1">
 <rect style="opacity:0.2" width="15" height="19" x="4" y="2.5" rx="1" ry="1"/>
 <rect style="fill:#4f4f4f" width="15" height="19" x="4" y="2" rx="1" ry="1"/>
 <g style="opacity:0.2" transform="translate(0,0.5)">
  <rect width="3" height="3" x="10" y="8" rx=".5" ry=".5"/>
  <rect width="3" height="3" x="14" y="8" rx=".5" ry=".5"/>
  <rect width="3" height="3" x="6" y="8" rx=".5" ry=".5"/>
  <rect width="3" height="3" x="10" y="4" rx=".5" ry=".5"/>
  <rect width="3" height="3" x="14" y="4" rx=".5" ry=".5"/>
  <rect width="3" height="3" x="6" y="4" rx=".5" ry=".5"/>
  <rect width="3" height="3" x="10" y="12" rx=".5" ry=".5"/>
  <rect width="3" height="3" x="14" y="12" rx=".5" ry=".5"/>
  <rect width="3" height="3" x="6" y="12" rx=".5" ry=".5"/>
  <rect width="3" height="3" x="10" y="16" rx=".5" ry=".5"/>
  <rect width="3" height="3" x="14" y="16" rx=".5" ry=".5"/>
  <rect width="3" height="3" x="6" y="16" rx=".5" ry=".5"/>
 </g>
 <g style="fill:#e4e4e4">
  <rect width="3" height="3" x="10" y="8" rx=".5" ry=".5"/>
  <rect width="3" height="3" x="14" y="8" rx=".5" ry=".5"/>
  <rect width="3" height="3" x="6" y="8" rx=".5" ry=".5"/>
  <rect width="3" height="3" x="10" y="4" rx=".5" ry=".5"/>
  <rect width="3" height="3" x="14" y="4" rx=".5" ry=".5"/>
  <rect width="3" height="3" x="6" y="4" rx=".5" ry=".5"/>
  <rect width="3" height="3" x="10" y="12" rx=".5" ry=".5"/>
  <rect width="3" height="3" x="14" y="12" rx=".5" ry=".5"/>
  <rect width="3" height="3" x="6" y="12" rx=".5" ry=".5"/>
  <rect width="3" height="3" x="10" y="16" rx=".5" ry=".5"/>
 </g>
 <rect style="fill:#ff5a5a" width="3" height="3" x="14" y="16" rx=".5" ry=".5"/>
 <rect style="fill:#64c90e" width="3" height="3" x="6" y="16" rx=".5" ry=".5"/>
 <path style="fill:#ffffff;opacity:0.1" d="M 5 2 C 4.446 2 4 2.446 4 3 L 4 3.5 C 4 2.946 4.446 2.5 5 2.5 L 18 2.5 C 18.554 2.5 19 2.946 19 3.5 L 19 3 C 19 2.446 18.554 2 18 2 L 5 2 z"/>
 <path style="opacity:0.2;fill:#ffffff" d="M 6.5 4 C 6.223 4 6 4.223 6 4.5 L 6 5 C 6 4.723 6.223 4.5 6.5 4.5 L 8.5 4.5 C 8.777 4.5 9 4.723 9 5 L 9 4.5 C 9 4.223 8.777 4 8.5 4 L 6.5 4 z M 10.5 4 C 10.223 4 10 4.223 10 4.5 L 10 5 C 10 4.723 10.223 4.5 10.5 4.5 L 12.5 4.5 C 12.777 4.5 13 4.723 13 5 L 13 4.5 C 13 4.223 12.777 4 12.5 4 L 10.5 4 z M 14.5 4 C 14.223 4 14 4.223 14 4.5 L 14 5 C 14 4.723 14.223 4.5 14.5 4.5 L 16.5 4.5 C 16.777 4.5 17 4.723 17 5 L 17 4.5 C 17 4.223 16.777 4 16.5 4 L 14.5 4 z M 6.5 8 C 6.223 8 6 8.223 6 8.5 L 6 9 C 6 8.723 6.223 8.5 6.5 8.5 L 8.5 8.5 C 8.777 8.5 9 8.723 9 9 L 9 8.5 C 9 8.223 8.777 8 8.5 8 L 6.5 8 z M 10.5 8 C 10.223 8 10 8.223 10 8.5 L 10 9 C 10 8.723 10.223 8.5 10.5 8.5 L 12.5 8.5 C 12.777 8.5 13 8.723 13 9 L 13 8.5 C 13 8.223 12.777 8 12.5 8 L 10.5 8 z M 14.5 8 C 14.223 8 14 8.223 14 8.5 L 14 9 C 14 8.723 14.223 8.5 14.5 8.5 L 16.5 8.5 C 16.777 8.5 17 8.723 17 9 L 17 8.5 C 17 8.223 16.777 8 16.5 8 L 14.5 8 z M 6.5 12 C 6.223 12 6 12.223 6 12.5 L 6 13 C 6 12.723 6.223 12.5 6.5 12.5 L 8.5 12.5 C 8.777 12.5 9 12.723 9 13 L 9 12.5 C 9 12.223 8.777 12 8.5 12 L 6.5 12 z M 10.5 12 C 10.223 12 10 12.223 10 12.5 L 10 13 C 10 12.723 10.223 12.5 10.5 12.5 L 12.5 12.5 C 12.777 12.5 13 12.723 13 13 L 13 12.5 C 13 12.223 12.777 12 12.5 12 L 10.5 12 z M 14.5 12 C 14.223 12 14 12.223 14 12.5 L 14 13 C 14 12.723 14.223 12.5 14.5 12.5 L 16.5 12.5 C 16.777 12.5 17 12.723 17 13 L 17 12.5 C 17 12.223 16.777 12 16.5 12 L 14.5 12 z M 6.5 16 C 6.223 16 6 16.223 6 16.5 L 6 17 C 6 16.723 6.223 16.5 6.5 16.5 L 8.5 16.5 C 8.777 16.5 9 16.723 9 17 L 9 16.5 C 9 16.223 8.777 16 8.5 16 L 6.5 16 z M 10.5 16 C 10.223 16 10 16.223 10 16.5 L 10 17 C 10 16.723 10.223 16.5 10.5 16.5 L 12.5 16.5 C 12.777 16.5 13 16.723 13 17 L 13 16.5 C 13 16.223 12.777 16 12.5 16 L 10.5 16 z M 14.5 16 C 14.223 16 14 16.223 14 16.5 L 14 17 C 14 16.723 14.223 16.5 14.5 16.5 L 16.5 16.5 C 16.777 16.5 17 16.723 17 17 L 17 16.5 C 17 16.223 16.777 16 16.5 16 L 14.5 16 z"/>
</svg>
